P2
48 48
255
100 128 172 170 145 178 191 168 150 119 151 90 145 154 133 98 97 207 149 83 69 178 143 0 121 227 152 40 138 244 168 77 155 135 120 98 94 64 90 75 72 83 64 58 74 95 69 91
97 144 154 146 163 173 160 130 141 129 113 125 138 152 108 107 104 216 133 41 101 181 190 50 94 202 121 60 84 188 155 103 103 125 127 130 69 81 68 84 73 81 70 73 85 99 82 81
125 146 160 159 152 155 167 137 116 129 103 131 131 133 129 125 114 193 140 32 76 195 138 68 133 215 129 43 125 218 179 47 121 146 95 80 80 87 92 87 89 82 74 66 85 68 85 89
130 133 114 126 131 116 149 165 136 132 103 123 143 93 110 119 103 246 141 31 104 223 110 76 115 208 121 20 99 216 143 16 119 120 114 117 94 73 83 99 83 81 75 68 80 80 75 94
150 132 89 103 70 113 131 164 110 136 132 104 119 120 138 136 125 199 142 97 180 217 160 45 82 211 115 68 120 175 152 125 125 126 129 122 74 86 96 66 85 73 67 83 78 53 71 89
82 103 122 128 96 89 101 131 119 171 155 156 120 129 140 145 119 219 155 43 106 198 150 59 137 217 134 44 111 180 184 32 126 126 131 119 112 75 65 85 92 88 90 70 60 69 77 56
106 125 144 163 130 98 104 89 146 164 150 129 149 153 147 111 93 206 81 46 116 169 122 92 155 222 141 37 109 232 162 57 141 154 139 162 123 77 68 71 88 85 71 80 88 84 57 63
101 130 146 151 101 121 91 89 130 174 135 132 147 153 156 102 90 240 102 65 173 203 94 49 140 229 147 68 88 158 166 63 143 133 167 141 123 98 95 90 88 94 66 98 108 70 73 85
111 122 165 149 148 110 118 120 124 131 116 193 181 140 138 167 146 207 103 78 123 224 153 56 119 176 132 52 107 216 86 12 174 155 149 183 141 96 115 104 103 101 117 70 65 59 99 72
104 125 136 151 139 112 108 109 132 122 133 175 154 179 158 155 129 187 118 16 121 245 110 84 97 221 106 49 85 198 157 48 138 133 161 154 160 137 121 113 85 86 76 74 82 73 79 83
99 108 126 107 148 106 99 120 139 135 147 179 162 152 150 165 134 165 142 47 145 251 181 47 122 183 125 25 92 186 176 52 153 158 161 168 162 159 151 117 100 71 54 82 52 75 97 86
156 146 124 133 132 127 88 112 118 159 146 122 122 143 135 144 161 186 118 83 151 150 138 80 115 187 117 20 124 194 135 11 146 169 162 149 158 151 144 128 77 91 103 75 65 72 93 71
140 130 119 109 108 98 116 124 106 109 120 112 123 139 154 141 117 189 121 32 117 224 122 56 146 209 133 57 70 196 155 12 165 188 150 161 152 153 148 113 101 83 92 86 82 96 75 85
83 87 97 80 155 150 165 149 122 117 129 135 139 162 121 163 126 204 116 34 121 237 128 99 109 202 158 48 70 182 149 67 151 178 150 172 151 161 136 117 86 87 85 88 83 75 87 98
83 92 117 139 137 184 152 132 117 110 131 130 108 90 124 121 102 244 113 42 131 219 112 75 98 195 191 86 145 206 110 65 156 151 168 186 159 156 141 124 91 71 92 95 80 80 89 79
95 98 142 141 141 160 154 143 161 138 133 103 128 61 91 88 134 198 135 66 117 218 145 21 103 172 120 77 144 225 81 77 162 168 160 177 202 161 159 125 99 85 84 77 64 84 72 84
53 27 236 208 58 61 213 203 61 42 219 226 48 32 211 226 154 154 159 158 146 104 95 106 113 103 138 121 144 118 137 120 75 84 85 115 191 209 214 150 122 68 59 61 36 65 49 41
43 65 200 208 31 41 239 227 50 45 234 218 40 73 202 221 152 124 164 155 132 118 94 98 108 96 114 101 108 144 151 144 82 102 88 159 159 215 190 153 122 72 37 75 42 48 44 58
227 231 78 63 210 234 57 37 205 209 25 58 226 225 42 52 125 151 141 122 114 135 113 91 108 101 122 134 137 154 137 103 75 104 115 168 199 226 169 108 91 69 57 85 44 74 76 40
234 223 51 43 218 235 53 82 249 228 32 49 235 211 44 53 136 136 114 84 114 99 115 123 140 108 114 114 136 143 99 94 85 98 121 173 209 197 151 119 72 59 65 47 48 67 56 62
86 46 194 222 57 62 219 223 46 65 218 225 43 70 222 213 152 134 127 130 115 108 119 153 130 133 153 149 140 91 102 56 95 118 124 178 193 190 158 90 97 63 49 57 89 47 56 45
53 38 211 229 60 63 227 215 54 76 217 199 52 47 217 218 111 152 126 115 94 90 137 140 139 159 161 138 119 138 111 150 69 114 127 166 198 174 138 95 102 93 108 103 95 53 55 22
205 223 50 59 209 205 46 73 195 232 51 66 213 223 56 79 106 96 93 111 103 106 103 137 134 133 152 154 120 131 109 123 73 81 125 201 207 144 146 123 119 129 134 130 122 86 81 56
216 221 42 55 208 216 56 59 206 206 66 45 220 214 31 50 120 125 131 157 159 151 133 94 114 123 95 119 134 123 106 90 77 94 133 170 166 120 103 104 139 161 155 151 134 109 73 81
50 74 193 211 59 45 190 225 54 41 205 209 54 49 209 222 98 118 147 184 178 139 130 96 110 91 119 108 132 120 111 92 80 92 131 138 144 113 127 143 137 165 174 149 150 138 117 85
65 44 237 218 59 57 224 220 23 39 228 204 52 31 209 237 98 138 124 117 125 118 120 92 84 83 103 102 115 125 123 123 130 100 140 110 111 96 135 152 134 125 186 155 133 124 99 108
220 206 43 29 223 214 60 61 213 205 35 45 217 234 38 56 124 135 124 83 81 77 94 110 134 112 119 88 118 109 128 116 102 98 88 109 75 115 130 134 135 150 157 184 174 122 88 63
203 209 60 57 210 208 64 48 213 203 82 74 223 245 57 46 137 134 123 93 57 87 114 142 140 127 153 114 136 145 126 114 95 84 100 93 85 83 88 137 130 163 135 121 142 108 95 69
58 69 203 233 66 70 224 232 29 51 231 225 55 36 216 196 146 167 135 97 116 130 156 128 152 156 141 120 160 140 120 126 88 100 81 98 123 96 88 114 119 136 165 127 108 106 71 65
49 56 211 224 52 63 213 198 36 42 218 219 42 53 210 226 144 165 140 117 154 103 130 136 154 151 160 143 134 143 181 162 81 92 108 99 86 88 83 89 121 125 128 124 97 90 85 95
201 233 56 47 205 225 45 61 242 221 56 60 212 244 50 62 127 125 139 146 182 164 117 110 112 112 149 146 122 147 173 156 93 90 80 104 88 95 98 84 100 115 92 94 85 91 113 90
224 212 71 58 212 212 29 40 231 231 42 62 233 230 70 30 143 138 124 143 167 131 94 107 113 130 142 164 163 139 135 139 105 93 84 91 95 90 92 94 85 114 101 93 85 96 81 74
133 183 159 155 83 33 91 160 178 169 103 38 35 159 162 156 74 94 177 200 69 84 213 192 87 78 218 150 63 73 195 215 122 119 146 135 118 96 116 141 120 120 121 132 159 168 133 135
119 185 234 189 28 45 97 121 232 178 115 23 56 161 232 159 89 70 175 208 78 71 204 216 79 93 171 205 104 90 186 179 132 112 116 120 115 90 124 144 120 112 138 127 124 145 148 120
132 113 194 102 92 49 94 141 234 167 75 62 75 114 203 212 198 183 68 52 181 201 65 64 176 191 79 75 157 193 62 73 71 100 119 123 87 132 98 105 129 153 149 157 125 141 137 116
138 167 180 144 66 85 112 204 179 159 108 58 45 132 161 200 179 207 98 86 215 196 71 48 185 187 94 62 194 201 75 74 138 136 124 137 68 111 122 116 132 139 152 128 124 141 143 119
116 190 206 121 32 60 110 161 225 202 136 81 90 142 150 234 87 63 193 196 94 92 200 204 47 78 186 174 82 69 184 171 159 147 123 136 78 98 135 152 114 139 139 128 134 124 154 140
163 170 173 96 66 51 68 127 152 203 90 59 82 137 161 223 76 89 195 202 86 73 188 185 70 67 193 186 88 62 213 187 148 157 151 120 126 102 116 133 139 136 138 136 128 129 134 135
108 230 128 119 131 30 128 211 199 226 113 56 55 108 180 195 187 201 64 50 203 211 49 80 185 190 93 56 186 208 77 79 136 137 166 147 146 108 129 161 135 126 150 149 143 158 172 140
87 176 201 168 99 64 92 207 148 141 168 85 83 137 224 165 184 182 64 76 187 198 107 51 196 191 60 76 181 175 73 93 163 159 157 143 169 157 155 137 91 122 139 125 138 105 160 145
117 194 208 172 107 51 91 151 212 186 132 62 32 177 177 168 71 79 184 183 55 73 198 170 49 79 183 172 81 70 186 191 171 148 134 154 165 149 130 109 83 108 164 122 132 152 105 126
172 202 190 141 91 98 123 196 149 195 153 78 52 138 210 167 64 109 164 185 80 78 177 187 72 90 213 213 75 91 200 190 126 106 120 132 148 124 112 106 114 134 158 145 134 145 115 135
125 255 239 110 91 53 95 170 189 200 114 52 50 152 175 219 189 202 78 67 181 181 92 71 194 212 94 85 199 187 75 77 135 127 109 99 112 128 98 96 141 161 177 141 124 119 146 165
145 175 214 154 52 115 101 169 162 136 133 43 59 155 166 192 202 185 84 87 198 175 50 83 171 195 110 72 176 204 68 73 117 127 115 103 121 107 132 124 129 157 154 158 123 124 141 157
161 194 210 163 110 72 77 169 225 166 156 62 11 134 195 191 52 66 210 189 65 73 195 205 82 86 176 188 49 93 185 188 114 125 146 119 119 159 150 161 107 135 134 148 157 129 131 170
109 147 188 151 65 34 110 172 210 199 135 40 18 141 221 180 96 84 188 189 68 84 230 175 92 89 187 197 77 64 185 211 125 150 140 119 119 143 149 150 119 110 123 185 164 149 105 188
113 223 164 168 58 37 79 171 204 124 96 47 47 110 170 211 199 188 63 73 194 204 94 75 182 198 76 67 202 192 79 74 131 127 117 113 151 103 125 122 119 138 167 149 128 117 104 146
130 216 184 143 98 61 112 185 212 186 109 65 94 107 193 207 199 201 62 86 194 172 70 90 211 185 78 58 199 165 53 80 157 140 121 132 148 113 79 104 88 151 161 122 119 135 140 111
