P2
48 48
255
90 95 87 109 118 121 119 104 101 129 135 128 124 130 117 113 101 84 99 106 98 116 119 113 124 227 154 181 139 118 88 52 91 91 146 198 168 123 100 64 69 95 145 142 170 200 78 71
116 95 95 101 112 106 110 93 120 148 131 119 127 125 93 112 112 110 128 121 106 119 123 104 121 166 164 195 145 95 35 78 77 113 181 214 191 120 124 97 88 129 133 175 208 147 140 65
151 140 128 120 125 125 141 125 148 139 125 116 126 121 97 113 134 135 130 128 120 128 101 98 122 134 171 186 161 118 77 55 57 152 161 200 204 126 52 46 40 54 178 173 145 189 158 69
148 146 111 106 118 133 161 135 118 139 128 122 106 115 131 147 153 140 135 134 128 129 120 109 126 153 196 195 183 126 106 93 117 94 167 210 168 159 104 50 97 120 138 207 222 173 69 75
107 85 70 98 98 129 152 127 108 133 129 117 107 149 144 122 122 118 121 112 121 132 148 125 117 137 197 191 130 73 116 60 55 145 181 167 182 117 77 65 89 93 158 187 251 145 169 90
109 103 98 96 104 118 123 116 108 138 141 116 118 137 156 119 125 125 108 106 118 106 114 111 133 184 217 214 158 92 62 81 108 174 178 226 208 149 61 40 53 134 113 200 199 225 154 94
116 104 131 126 124 112 102 102 113 111 111 98 96 149 123 116 133 139 122 112 96 82 123 153 115 172 197 180 139 144 35 66 72 137 174 192 196 98 111 66 87 112 93 156 199 203 136 94
136 140 145 133 134 104 111 126 132 129 130 117 126 145 112 111 137 155 131 109 94 100 136 165 95 208 230 178 138 68 85 126 109 159 184 161 220 119 94 75 107 112 150 162 161 181 113 75
118 125 127 148 108 109 122 137 139 148 129 155 137 104 105 113 116 141 125 98 92 108 134 123 91 161 137 162 105 106 88 124 50 116 183 184 166 174 82 39 34 111 161 131 165 178 147 67
112 109 104 113 120 101 96 120 104 97 111 136 124 111 107 133 149 134 127 116 122 109 119 98 140 172 152 172 153 92 21 50 115 173 121 255 158 151 118 103 85 67 147 156 126 222 146 121
120 109 112 117 118 105 86 111 86 69 111 146 99 93 106 140 129 128 129 133 141 137 108 100 97 208 219 214 149 81 65 18 48 150 155 176 172 187 129 82 109 78 134 188 161 164 120 93
112 124 133 119 131 128 113 132 120 111 127 129 102 115 119 134 123 132 127 138 156 149 142 136 148 145 194 149 112 71 108 121 97 124 185 177 182 138 107 70 57 96 100 169 147 176 116 93
99 120 133 126 132 134 132 149 145 144 132 148 144 123 114 130 165 135 124 122 117 117 138 138 124 126 176 170 164 151 86 58 127 103 195 180 121 189 121 48 69 76 151 144 169 196 136 111
110 124 129 128 137 133 132 124 119 147 137 146 146 128 106 143 163 145 131 99 117 107 130 136 130 213 165 188 97 70 115 53 111 137 152 191 162 140 105 82 47 76 152 186 207 230 146 83
136 154 151 124 133 131 105 120 125 135 140 136 109 109 128 147 122 134 116 106 123 112 110 130 114 148 154 157 136 87 81 48 103 96 222 205 213 147 138 76 80 159 122 207 242 174 152 109
178 172 133 122 125 101 102 111 116 116 118 119 112 122 154 140 121 121 130 135 96 115 123 151 128 171 150 162 129 113 72 78 64 193 199 213 170 133 109 79 24 126 200 143 219 177 121 120
178 142 132 135 124 104 100 118 129 129 128 102 121 104 133 129 120 126 120 109 84 103 129 142 103 177 224 182 131 107 49 110 73 152 152 209 150 77 84 52 79 132 116 150 225 177 176 89
124 141 142 144 133 112 111 128 133 142 129 132 105 111 111 123 140 133 138 114 115 117 117 121 118 158 219 210 150 96 64 51 138 144 136 181 196 157 96 65 75 67 116 210 162 188 157 102
105 101 108 126 105 91 94 129 113 116 123 125 104 102 110 102 123 144 110 105 89 123 129 130 120 203 200 165 166 100 62 72 87 83 162 173 160 99 86 57 71 66 158 163 188 198 101 66
113 114 107 126 95 80 99 121 106 118 86 102 125 111 97 111 112 125 128 93 80 120 144 153 139 164 175 184 165 51 63 39 65 108 159 188 145 130 94 55 93 130 157 164 178 146 134 104
109 103 123 138 102 72 79 99 103 131 109 113 136 122 86 109 124 112 98 91 82 131 126 139 123 148 217 170 145 79 59 57 146 130 145 187 188 160 107 105 74 127 144 199 149 165 114 82
103 96 101 121 113 110 80 94 108 129 135 132 126 120 105 94 120 127 98 115 131 126 133 128 78 182 173 183 130 89 75 48 88 144 170 176 169 111 105 107 47 139 167 179 198 145 87 54
101 98 94 122 119 110 99 96 97 114 127 132 128 123 126 117 102 109 107 122 102 108 111 99 118 158 168 169 89 125 54 58 93 104 140 167 166 143 109 43 44 81 150 138 216 156 113 96
115 104 115 117 110 113 98 100 114 121 101 107 128 130 142 143 130 113 121 109 90 99 98 94 146 172 218 187 183 118 66 98 98 133 147 188 194 98 121 84 72 55 134 201 169 165 72 99
125 128 126 131 139 160 189 213 238 223 223 237 234 229 222 243 228 230 224 214 214 227 226 221 23 8 14 219 203 209 18 6 25 214 200 211 11 11 17 206 219 206 24 16 23 207 208 203
118 116 124 116 141 166 214 224 220 219 199 221 224 233 230 230 227 230 236 217 221 213 235 233 21 24 33 221 213 210 19 16 28 219 205 206 27 19 15 220 208 209 13 1 23 202 207 206
132 116 125 122 132 148 179 196 218 217 216 221 221 232 223 228 222 214 232 217 230 227 210 216 22 16 17 199 211 200 19 19 16 227 215 216 18 15 24 220 201 219 20 24 20 202 202 225
118 111 100 112 111 125 131 155 161 173 190 205 216 216 227 228 223 220 230 244 223 227 226 203 213 201 214 14 2 0 199 214 211 15 19 21 195 209 205 7 12 16 209 200 208 32 8 4
108 94 96 76 74 81 87 90 102 99 127 171 215 225 227 234 233 238 234 224 227 225 225 224 214 216 215 8 24 10 203 207 211 22 21 16 219 212 218 6 4 22 201 209 211 13 13 27
77 60 58 42 58 57 45 65 68 65 92 129 153 208 223 228 233 220 221 219 219 223 212 215 192 218 229 17 16 22 225 202 212 15 21 18 216 208 212 11 11 15 210 202 223 15 6 25
67 59 57 37 45 47 51 47 58 51 57 76 120 158 209 223 226 226 229 233 232 226 230 224 11 20 16 213 213 207 17 32 0 212 215 203 6 33 14 227 216 212 20 21 26 215 213 213
62 52 36 61 52 42 50 44 67 55 40 61 73 130 157 187 222 223 222 208 227 236 208 232 27 23 9 207 214 207 14 9 15 215 219 211 32 16 41 219 215 208 0 15 18 226 201 226
47 69 54 50 60 55 47 57 47 37 67 49 53 82 117 175 214 221 225 233 220 227 227 214 15 22 0 212 209 217 17 8 24 217 216 219 25 16 6 201 222 217 17 13 17 212 209 206
53 44 59 55 51 41 52 45 57 50 45 58 57 60 119 171 212 226 219 220 222 235 234 221 228 213 207 7 11 22 217 210 212 14 8 26 214 230 206 15 23 15 201 204 212 19 16 24
63 51 55 60 56 72 53 42 61 48 49 28 59 68 109 174 224 223 231 217 220 230 224 210 219 214 212 15 21 24 212 215 209 6 9 22 215 224 212 23 27 24 207 210 212 9 20 24
55 52 52 69 67 54 50 67 40 53 56 56 42 56 93 156 192 207 228 229 223 212 216 211 208 227 209 15 15 11 215 212 224 21 21 15 201 211 205 24 16 29 217 218 213 18 22 24
66 57 84 98 99 101 83 63 59 41 51 54 53 64 70 113 171 199 223 214 201 208 187 177 11 20 37 211 209 206 5 26 17 214 226 231 10 25 21 214 215 211 29 21 19 221 218 215
101 97 127 146 162 144 131 85 56 64 62 55 53 56 68 120 147 168 181 192 187 183 158 165 19 30 20 211 205 209 8 17 18 196 212 216 18 9 26 206 202 203 16 24 25 213 202 206
128 123 153 174 178 172 141 125 74 52 56 49 57 80 80 109 120 134 140 150 147 146 142 132 10 15 3 212 216 210 20 9 5 207 220 219 13 26 14 223 215 208 23 11 9 200 213 211
126 138 171 175 183 183 165 147 89 84 62 49 42 60 62 98 129 129 127 142 128 136 127 123 211 208 222 13 11 26 222 214 198 12 21 17 223 201 217 12 27 16 219 206 201 8 12 9
150 148 185 171 191 167 175 139 97 72 59 42 63 57 85 112 128 113 140 132 125 120 114 117 221 222 214 9 16 11 223 214 215 13 1 11 203 214 212 10 14 28 204 204 210 11 13 21
142 147 159 171 187 172 163 152 103 67 49 42 53 74 98 120 130 129 129 119 111 123 120 122 225 198 211 17 16 15 209 219 208 16 17 17 210 219 211 18 16 9 205 203 213 11 8 18
120 125 148 167 171 163 157 120 75 59 69 56 86 108 125 117 142 128 125 125 132 127 126 137 21 3 29 212 211 220 17 12 33 203 211 218 8 16 19 230 205 211 22 17 7 215 212 215
106 111 139 152 161 137 133 99 84 50 65 76 85 108 130 122 121 134 135 135 121 127 135 122 25 24 20 214 203 210 18 13 17 205 223 228 14 20 15 221 215 212 15 17 9 217 206 216
107 119 127 115 109 107 91 83 82 75 78 100 106 121 119 146 133 121 119 124 114 121 121 134 17 25 16 219 204 216 15 18 17 219 196 214 5 26 1 204 199 224 7 17 12 198 209 216
116 111 104 108 118 108 107 92 108 104 107 99 111 129 135 127 133 124 124 122 134 130 125 124 210 219 209 17 14 19 226 214 213 12 11 28 203 204 211 13 31 0 214 217 203 12 20 29
127 125 115 134 123 117 124 122 117 123 112 117 106 133 110 131 120 120 126 129 132 141 130 134 204 199 219 28 14 0 223 210 220 16 14 13 223 222 195 9 30 14 201 211 211 16 13 14
119 129 125 120 122 121 122 124 119 118 129 111 119 136 104 121 132 114 147 107 138 139 134 125 208 214 205 14 15 26 214 211 216 20 25 20 225 222 211 13 23 20 211 200 197 19 22 23
